X:1
T:Joyful Tidings of a Savior
T:Joyful Tidings of a Savior
T:S. M. Nourse
T:E. A. Besley, 1888
T:Public Domain Courtesy of the Cyber Hymnal™
T:Public Domain Courtesy of the Cyber Hymnal™
C:S. M. Nourse
Z:Public Domain
Z:Courtesy of the Cyber Hymnal™
%%score ( 1 2 ) ( 3 4 )
L:1/8
Q:1/4=108
M:3/4
K:F
V:1 treble 
V:2 treble 
V:3 bass 
V:4 bass 
V:1
 cB | [FA]2 [FA]2 [FA][FB] | [Fc]4 [Fc]2 | E4 F2 | [EG]4 CC | [CF]2 [CF]2 [FA]2 | %6
w: 1.~Joy- ful|tid- ings of a|Sav- ior|Came this|day To the|world, as in|
w: 2.~Ho- ly|trib- utes to the|man- ger|Let us|bring; Let us|wel- come the|
w: 3.~Hum- bly|shel- tered in a|sta- ble|Je- sus|lay; May He|like- wise be|
 [EG]2 [EG]2 [FA]2 | [Fc]4 [FA]2 | [EG]4 cB | [FA]2 [FA]2 [FA]2 | [^Fd]4 [Fc]2 | [GB]6 | %12
w: dark- ness and|sin it|lay; An- gel|voic- es sang|soft and|clear|
w: Sav- ior, our|Lord and|king; While the|earth with pure|snow is|clad|
w: found in our|hearts this|day; Ho- ly|Sav- ior, do|Thou be|near,|
 [Ge]4 [Fd]2 | [Ec]4 [EB]2 | !fermata![FA]4 [Ff]2 | [Fe]4 [Fd]2 |!<(! [Fc]4 [FB]2!<)! | %17
w: Through the|mid- night|air. The|bells send|forth their|
w: Let pure|hearts be|glad. And|bells ring|out their|
w: Bring Thou|ho- ly|cheer; And|we will|sing in|
!>(! [FA]4 [EG]2!>)! | F4 [Ff]2 | [Fe]4 [Fd]2 |!<(! [Fc]4 [FB]2!<)! |!>(! [FA]4 [EG]2!>)! | %22
w: peace- ful|strain, And|tell that|joy- ful|news a-|
w: joy- ful|peal, And|an- gel|voic- es|gent- ly|
w: glad ac-|cord With|joy- ful|bells and|an- gels’|
 F6!pp! |"^rall." [A,C]6 | [B,C]2 [A,C]2 [G,C]2 | !fermata![A,C]4 ||"^Refrain" cB | %27
w: gain,|Far|o- ver the|snow.||
w: steal|Far|through the still|night.|Sweet- ly|
w: word,|Both|now and for|aye.||
 [FA]2 [FA]2 [FA][FB] | [Fc]4 [Fc]2 | E4 F2 | [EG]4 CC | [CF]2 [CF]2 [FA]2 | [EG]4 [FA]!<(![FA] | %33
w: ||||||
w: sing, then, with the|an- gels,|Soft and|clear; Let your|voic- es be|borne on the|
w: ||||||
 [Fc]4!<)!!>(! [FA]2!>)! | [EG]4 cB | [FA]2 [FA]2 [FA][FB] | [Fc]4 [Fc]2 | E4 F2 | [EG]4 CC | %39
w: ||||||
w: chill night|air; Car- ol|soft- ly, car- ol|sweet- ly,|Peace pro-|claim Through the|
w: ||||||
 [CF]2 [CF]2 [FA]2 |"^dim e rall." [EG]2 [EG]2 [FA]2 | [EG]4 [EG]2 |!pp! !fermata!F4 |] %43
w: ||||
w: birth of a|Sav- ior in|Beth- le-|hem.|
w: ||||
V:2
 x2 | x6 | x6 | E4 F2 | x4 CC | x6 | x6 | x6 | x4 cB | x6 | x6 | x6 | x6 | x6 | x6 | x6 | x6 | x6 | %18
 F4 x2 | x6 | x6 | x6 | F6 | x6 | x6 | x4 || x2 | x6 | x6 | E4 F2 | x4 CC | x6 | x6 | x6 | x4 cB | %35
 x6 | x6 | E4 F2 | x4 CC | x6 | x6 | x6 | F4 |] %43
V:3
 z2 | [F,C]2 [F,C]2 [F,C][F,C] | [A,C]4 [A,C]2 | [B,C]4 [A,C]2 | [G,C]4 C,C, | %5
 [F,A,]2 [F,A,]2 [F,C]2 | [C,C]2 [C,C]2 [F,C]2 | [A,C]4 [F,C]2 | [C,C]4 CB, | %9
 [F,C]2 [A,C]2 [F,C]2 | [D,D]4 [D,D]2 | [G,D]6 | C4 C2 | C4 C2 | !fermata![F,C]4 [G,,F,A,]2 | %15
 [F,,F,B,]4 [F,,F,B,]2 | [F,,F,A,]4 [F,,F,D]2 | [F,,F,C]4 [F,,F,B,]2 | [F,,F,A,]4 [F,,F,A,]2 | %19
 [F,,F,B,]4 [F,,F,B,]2 | [F,,F,A,]4 [F,,F,D]2 | [F,,F,C]4 [F,,F,B,]2 | [F,,F,A,]6 | [F,,F,A,]6 | %24
 [C,G,]2 [C,F,]2 [C,E,]2 | !fermata![F,,F,]4 || z2 | [F,C]2 [F,C]2 [F,C][G,C] | [A,C]4 [A,C]2 | %29
 [B,C]4 [A,C]2 | [G,C]4 C,C, | [F,A,]2 [F,A,]2 [F,C]2 | [C,C]4 [F,C][F,C] | [A,C]4 [F,C]2 | %34
 [C,C]4 CB, | [F,C]2 [F,C]2 [F,C][G,C] | [A,C]4 [A,C]2 | [B,C]4 [A,C]2 | [G,C]4 C,C, | %39
 [F,A,]2 [F,A,]2 [F,C]2 | [G,C]2 [G,C]2 [F,C]2 | [C,C]4 [C,C]2 |!pp! !fermata![F,,F,A,]4 |] %43
V:4
 x2 | x6 | x6 | x6 | x4 C,C, | x6 | x6 | x6 | x4 CB, | x6 | x6 | x6 | C4 C2 | C4 C2 | x6 | x6 | %16
 x6 | x6 | x6 | x6 | x6 | x6 | x6 | x6 | x6 | x4 || x2 | x6 | x6 | x6 | x4 C,C, | x6 | x6 | x6 | %34
 x4 CB, | x6 | x6 | x6 | x4 C,C, | x6 | x6 | x6 | x4 |] %43

